X:1
T:The Friar's Britches
M:6/8
L:1/8
Q:80
C:Arranged by T. Tully
S:Jig
K:HP
a | \
{cd}cB{G}A{g}Bcd | \
{g}ea{g}aged | \
e{g}e{A}e{gef}e2d |
{g}c{d}c{e}c{gde}dB{G}A{gcd}cB{G}A{g}Bcd | \
{g}ea{g}aged | \
{g}c{d}c{e}c{gde}dBe |
A{d}A{e}A{gAGAG}A2 :| \
a | \
{AGAG}A2{d}B{gcd}cB{G}A | \
{g}A{d}ceaed |
e{g}e{A}e{gef}e2d | \
{g}c{d}c{e}c{gde}dB{G}A{gAGAG}A2{d}B{gcd}cB{G}A | \
{g}A{d}ceaed |
{g}c{d}c{e}c{gde}dBe | \
A{d}A{e}A{gAGAG}A2 :| \
{g}e |
a{g}a{g}a{g}a2e | \
{g}faf{gef}ec{d}A | \
e{g}e{A}e{gef}e2d |
{g}c{d}c{e}c{gde}dB{G}Aa{g}a{g}a{g}a2e | \
{g}faf{gef}e2d | \
{g}c{d}c{e}c{gde}dBe |
A{d}A{e}A{gAGAG}A2 :| \
a | \
{cd}cB{G}A{g}Bcd | \
{g}ea{g}aged |
e{g}e{A}e{g}de{A}e | \
{g}ce{A}e{gde}dB{G}A{gcd}cB{G}A{g}Bcd | \
{g}ea{g}aged |
{g}c{d}c{e}c{gde}dBe | \
A{d}A{e}A{gAGAG}A2 :| \
a |
{cd}cB{G}A{g}Bcd | \
{g}ea{g}aga{g}a | \
ea{g}aga{g}a |
{Bd}Ba{g}a{cd}ca{g}a{cd}cB{G}A{g}Bcd | \
{g}ea{g}aged | \
{g}c{d}c{e}c{gde}dBe |
A{d}A{e}A{gAGAG}A2 :|
